icons/Gruvbox-Material-Dark/48x48/apps/discord.svg

<svg width="48" height="48" version="1.1" xmlns="http://www.w3.org/2000/svg" xmlns:xlink="http://www.w3.org/1999/xlink">
 <circle cx="24" cy="25" r="20" style="opacity:.2"/>
 <circle cx="24" cy="24" r="20" style="fill:#6ab1e6"/>
 <path d="M 24,4 A 20,20 0 0 0 4,24 20,20 0 0 0 4.0215,24.582 20,20 0 0 1 24,5 20,20 0 0 1 43.979,24.418 20,20 0 0 0 44,24 20,20 0 0 0 24,4 Z" style="fill:#ffffff;opacity:.1"/>
 <path d="m20.275391 15.002087c-1.856986 0.322771-3.634791 0.88785-5.292969 1.65625-0.01435 0.0063-0.02504 0.01577-0.0332 0.0293-3.37068 5.082043-4.294771 10.039876-3.841797 14.935547 0.0021 0.02395 0.01475 0.04599 0.0332 0.06055 2.223878 1.648188 4.377984 2.649277 6.492187 3.3125 0.03384 0.01042 0.07027-0.0012 0.0918-0.0293 0.500115-0.689239 0.945889-1.116598 1.328125-1.880859 0.02256-0.04476 0.0012-0.09753-0.04492-0.115235-0.707125-0.270706-1.37965-0.599796-2.027343-0.974609-0.05123-0.0302-0.05687-0.10522-0.0098-0.140625 0.136299-0.103071 0.274151-0.210077 0.404297-0.31836 0.02355-0.01977 0.0563-0.02421 0.08398-0.01172 4.255064 1.960582 8.861548 1.960582 13.066407 0 0.02768-0.01352 0.05941-0.01009 0.08398 0.0098 0.130183 0.108283 0.266973 0.217242 0.404297 0.320313 0.04713 0.0354 0.04343 0.110432-0.0078 0.140625-0.647693 0.382094-1.321143 0.704937-2.029297 0.974609-0.0461 0.0177-0.06553 0.07048-0.04297 0.115235 0.390439 0.76319 0.835284 1.18963 1.326172 1.878906 0.02051 0.02916 0.05796 0.04168 0.0918 0.03125 2.124458-0.663223 4.278075-1.664312 6.501954-3.3125 0.01948-0.01456 0.03311-0.0366 0.03516-0.06055 0.542118-5.659933-0.909571-10.57516-3.845703-14.933594-0.0072-0.01456-0.01884-0.02501-0.0332-0.03125-1.657152-0.767364-3.433005-1.332444-5.291016-1.65625-0.03384-0.0063-0.06851 0.0079-0.08594 0.03906-0.228542 0.410222-0.480927 0.745375-0.658203 1.166015-1.998411-0.301935-3.987879-0.301935-5.945312 0-0.177313-0.429989-0.4384-0.755793-0.667969-1.166015-0.01743-0.03019-0.0521-0.04427-0.08594-0.03906zm-0.777344 8.998047c1.403209 0 2.52389 1.131842 2.501953 2.5 0 1.378011-1.109712 2.5-2.501953 2.5-1.370382 0-2.498047-1.121989-2.498047-2.5s1.105767-2.5 2.498047-2.5zm9.001953 0c1.403249 0 2.521899 1.131842 2.5 2.5 1e-6 1.378011-1.096751 2.5-2.5 2.5-1.370342 0-2.5-1.121989-2.5-2.5s1.10772-2.5 2.5-2.5z" style="opacity:.2"/>
 <path d="m20.275391 14.001953c-1.856986 0.322771-3.634791 0.88785-5.292969 1.65625-0.01435 0.0063-0.025043 0.015767-0.033203 0.029297-3.37068 5.082043-4.294771 10.039876-3.841797 14.935547 0.0021 0.02395 0.014753 0.045987 0.033203 0.060547 2.223878 1.648188 4.377984 2.649277 6.492187 3.3125 0.033841 0.01042 0.070267-0.001197 0.091797-0.029297 0.500115-0.689239 0.945889-1.116598 1.328125-1.880859 0.02256-0.04476 0.001199-0.09753-0.044922-0.115235-0.707125-0.270706-1.37965-0.599796-2.027343-0.974609-0.05123-0.0302-0.056866-0.10522-0.009766-0.140625 0.136299-0.103071 0.274151-0.210077 0.404297-0.31836 0.02355-0.01977 0.056304-0.024208 0.083984-0.011718 4.255064 1.960582 8.861548 1.960582 13.066407 0 0.02768-0.01352 0.059414-0.010095 0.083984 0.009765 0.130183 0.108283 0.266973 0.217242 0.404297 0.320313 0.04713 0.0354 0.043427 0.110432-0.007813 0.140625-0.647693 0.382094-1.321143 0.704937-2.029297 0.974609-0.046099 0.0177-0.065528 0.070479-0.042968 0.115235 0.390439 0.76319 0.835284 1.18963 1.326172 1.878906 0.02051 0.02916 0.057956 0.04168 0.091796 0.03125 2.124458-0.663223 4.278075-1.664312 6.501954-3.3125 0.01948-0.01456 0.033106-0.036597 0.035156-0.060547 0.542118-5.659933-0.909571-10.57516-3.845703-14.933594-0.0072-0.01456-0.018843-0.02501-0.033203-0.03125-1.657152-0.767364-3.433005-1.332444-5.291016-1.65625-0.03384-0.0063-0.068507 0.007903-0.085938 0.039063-0.228542 0.410222-0.480927 0.745375-0.658203 1.166015-1.998411-0.301935-3.987879-0.301935-5.945312 0-0.177313-0.429989-0.4384-0.755793-0.667969-1.166015-0.01743-0.03019-0.052097-0.044273-0.085937-0.039063zm-0.777344 8.998047c1.403209 0 2.52389 1.131842 2.501953 2.5 0 1.378011-1.109712 2.5-2.501953 2.5-1.370382 0-2.498047-1.121989-2.498047-2.5s1.105767-2.5 2.498047-2.5zm9.001953 0c1.403249 0 2.521899 1.131842 2.5 2.5 1e-6 1.378011-1.096751 2.5-2.5 2.5-1.370342 0-2.5-1.121989-2.5-2.5s1.10772-2.5 2.5-2.5z" style="fill:#ffffff"/>
</svg>

<svg xmlns="http://www.w3.org/2000/svg" width="48" height="48" version="1.1">
 <circle style="opacity:0.2" cx="24" cy="25" r="20"/>
 <circle style="fill:#5865f2" cx="24" cy="24" r="20"/>
 <path style="opacity:0.1;fill:#ffffff" d="M 24,4 A 20,20 0 0 0 4,24 20,20 0 0 0 4.0215,24.582 20,20 0 0 1 24,5 20,20 0 0 1 43.979,24.418 20,20 0 0 0 44,24 20,20 0 0 0 24,4 Z"/>
 <path style="opacity:0.2" d="m 20.275391,15.002087 c -1.856986,0.322771 -3.634791,0.88785 -5.292969,1.65625 -0.01435,0.0063 -0.02504,0.01577 -0.0332,0.0293 -3.37068,5.082043 -4.294771,10.039876 -3.841797,14.935547 0.0021,0.02395 0.01475,0.04599 0.0332,0.06055 2.223878,1.648188 4.377984,2.649277 6.492187,3.3125 0.03384,0.01042 0.07027,-0.0012 0.0918,-0.0293 0.500115,-0.689239 0.945889,-1.116598 1.328125,-1.880859 0.02256,-0.04476 0.0012,-0.09753 -0.04492,-0.115235 -0.707125,-0.270706 -1.37965,-0.599796 -2.027343,-0.974609 -0.05123,-0.0302 -0.05687,-0.10522 -0.0098,-0.140625 0.136299,-0.103071 0.274151,-0.210077 0.404297,-0.31836 0.02355,-0.01977 0.0563,-0.02421 0.08398,-0.01172 4.255064,1.960582 8.861548,1.960582 13.066407,0 0.02768,-0.01352 0.05941,-0.01009 0.08398,0.0098 0.130183,0.108283 0.266973,0.217242 0.404297,0.320313 0.04713,0.0354 0.04343,0.110432 -0.0078,0.140625 -0.647693,0.382094 -1.321143,0.704937 -2.029297,0.974609 -0.0461,0.0177 -0.06553,0.07048 -0.04297,0.115235 0.390439,0.76319 0.835284,1.18963 1.326172,1.878906 0.02051,0.02916 0.05796,0.04168 0.0918,0.03125 2.124458,-0.663223 4.278075,-1.664312 6.501954,-3.3125 0.01948,-0.01456 0.03311,-0.0366 0.03516,-0.06055 0.542118,-5.659933 -0.909571,-10.57516 -3.845703,-14.933594 -0.0072,-0.01456 -0.01884,-0.02501 -0.0332,-0.03125 -1.657152,-0.767364 -3.433005,-1.332444 -5.291016,-1.65625 -0.03384,-0.0063 -0.06851,0.0079 -0.08594,0.03906 -0.228542,0.410222 -0.480927,0.745375 -0.658203,1.166015 -1.998411,-0.301935 -3.987879,-0.301935 -5.945312,0 -0.177313,-0.429989 -0.4384,-0.755793 -0.667969,-1.166015 -0.01743,-0.03019 -0.0521,-0.04427 -0.08594,-0.03906 z m -0.777344,8.998047 c 1.403209,0 2.52389,1.131842 2.501953,2.5 0,1.378011 -1.109712,2.5 -2.501953,2.5 -1.370382,0 -2.498047,-1.121989 -2.498047,-2.5 0,-1.378011 1.105767,-2.5 2.498047,-2.5 z m 9.001953,0 c 1.403249,0 2.521899,1.131842 2.5,2.5 1e-6,1.378011 -1.096751,2.5 -2.5,2.5 -1.370342,0 -2.5,-1.121989 -2.5,-2.5 0,-1.378011 1.10772,-2.5 2.5,-2.5 z"/>
 <path style="fill:#ffffff" d="M 20.275391 14.001953 C 18.418405 14.324724 16.6406 14.889803 14.982422 15.658203 C 14.968072 15.664503 14.957379 15.67397 14.949219 15.6875 C 11.578539 20.769543 10.654448 25.727376 11.107422 30.623047 C 11.109522 30.646997 11.122175 30.669034 11.140625 30.683594 C 13.364503 32.331782 15.518609 33.332871 17.632812 33.996094 C 17.666653 34.006514 17.703079 33.994897 17.724609 33.966797 C 18.224724 33.277558 18.670498 32.850199 19.052734 32.085938 C 19.075294 32.041178 19.053933 31.988408 19.007812 31.970703 C 18.300687 31.699997 17.628162 31.370907 16.980469 30.996094 C 16.929239 30.965894 16.923603 30.890874 16.970703 30.855469 C 17.107002 30.752398 17.244854 30.645392 17.375 30.537109 C 17.39855 30.517339 17.431304 30.512901 17.458984 30.525391 C 21.714048 32.485973 26.320532 32.485973 30.525391 30.525391 C 30.553071 30.511871 30.584805 30.515296 30.609375 30.535156 C 30.739558 30.643439 30.876348 30.752398 31.013672 30.855469 C 31.060802 30.890869 31.057099 30.965901 31.005859 30.996094 C 30.358166 31.378188 29.684716 31.701031 28.976562 31.970703 C 28.930463 31.988403 28.911034 32.041182 28.933594 32.085938 C 29.324033 32.849128 29.768878 33.275568 30.259766 33.964844 C 30.280276 33.994004 30.317722 34.006524 30.351562 33.996094 C 32.47602 33.332871 34.629637 32.331782 36.853516 30.683594 C 36.872996 30.669034 36.886622 30.646997 36.888672 30.623047 C 37.43079 24.963114 35.979101 20.047887 33.042969 15.689453 C 33.035769 15.674893 33.024126 15.664443 33.009766 15.658203 C 31.352614 14.890839 29.576761 14.325759 27.71875 14.001953 C 27.68491 13.995653 27.650243 14.009856 27.632812 14.041016 C 27.40427 14.451238 27.151885 14.786391 26.974609 15.207031 C 24.976198 14.905096 22.98673 14.905096 21.029297 15.207031 C 20.851984 14.777042 20.590897 14.451238 20.361328 14.041016 C 20.343898 14.010826 20.309231 13.996743 20.275391 14.001953 z M 19.498047 23 C 20.901256 23 22.021937 24.131842 22 25.5 C 22 26.878011 20.890288 28 19.498047 28 C 18.127665 28 17 26.878011 17 25.5 C 17 24.121989 18.105767 23 19.498047 23 z M 28.5 23 C 29.903249 23 31.021899 24.131842 31 25.5 C 31.000001 26.878011 29.903249 28 28.5 28 C 27.129658 28 26 26.878011 26 25.5 C 26 24.121989 27.10772 23 28.5 23 z"/>
</svg>
